img/union-17.svg

<svg fill="none" height="25" viewBox="0 0 25 25" width="25" xmlns="http://www.w3.org/2000/svg"><path d="m24.2881 12.447h.3682zm0 11.5896h.3682v.3683h-.3682zm-11.5552 0v-.3682zm0-22.81103c-6.17729 0-11.18687 5.02295-11.18687 11.22143h-.736522c0-6.60318 5.337262-11.957955 11.923392-11.957954zm11.1869 11.22143c0-6.19848-5.0096-11.22143-11.1869-11.22143v-.736524c6.5862 0 11.9234 5.354774 11.9234 11.957954zm0 11.5896v-11.5896h.7365v11.5896zm-11.1869-.3682h11.5552v.7365h-11.5552zm-11.18687-11.2214c0 6.1984 5.00958 11.2214 11.18687 11.2214v.7365c-6.58613 0-11.923392-5.3548-11.923392-11.9579z" fill="#fff500"/></svg>

<svg width="25" height="25" viewBox="0 0 25 25" fill="none" xmlns="http://www.w3.org/2000/svg">
<path d="M24.2881 12.447L24.6563 12.447L24.2881 12.447ZM24.2881 24.0366L24.6563 24.0366L24.6563 24.4049L24.2881 24.4049L24.2881 24.0366ZM12.7329 24.0366L12.7329 23.6684L12.7329 24.0366ZM12.7329 1.22557C6.55561 1.22557 1.54603 6.24852 1.54603 12.447L0.809508 12.447C0.809508 5.84382 6.14677 0.489045 12.7329 0.489046L12.7329 1.22557ZM23.9198 12.447C23.9198 6.24852 18.9102 1.22557 12.7329 1.22557L12.7329 0.489046C19.3191 0.489046 24.6563 5.84382 24.6563 12.447L23.9198 12.447ZM23.9198 24.0366L23.9198 12.447L24.6563 12.447L24.6563 24.0366L23.9198 24.0366ZM12.7329 23.6684L24.2881 23.6684L24.2881 24.4049L12.7329 24.4049L12.7329 23.6684ZM1.54603 12.447C1.54603 18.6454 6.55561 23.6684 12.7329 23.6684L12.7329 24.4049C6.14677 24.4049 0.809508 19.0501 0.809508 12.447L1.54603 12.447Z" fill="#FFF500"/>
</svg>
